X:001
T:The Harper's Reel
S:Myscha Butt <myscha__butt@hotmail.com> 2005-9-27
M:4/4
R:reel
K:C
EF G2 E2 c2 | BA G2 [E2C2] [E2G,2] | cA G2 E2 ED |
C2 [D2 G,2] [D2 A,2] [D2 B,2] | EF G2 E2 c2 | BA G2 [E2C2] [E2G,2] | EF G2 E2 D2 |
ED [C2 C,2] [C2 G,2] [C2 C2]  | cB A2 F2 FA | cA G2 E2 E2 | EF G2 E2 cA |
GE [D2 G,2] [D2 A,2] [D2 B,2] | EF G2 EG c2 | BA G2 E2 E2 | EF G2 EC D2 |
ED [C2 G2] [C2 E,2] [C2 C,2] | EF [G2 E2] [E2 C2] [c2 A2] | BA [G2 E2] [E2 C2] [E2 G,2] | cA [G2 E2] [E2 C2] ED |
[C2 F2] [D2 B,2] [D2 C2] [D2 D2] | EF [G2 E2] [E2 C2] [c2 A2] | BA [G2 E2] [E2 C2] [E2 A,2] | EF [G2 E2] [E2 C2] [D2 G,2] |
EF [C2 E2] [C2 G,2] [C2 C2] | cB [A2 F2] [F2 C2] [FC]A | cA G2 [E2 C2] [E2 G,2] | EF [G2 E2] [E2 C2] cA |
GE [D2 G,2] [D2 A,2] [D2 B,2] | EF [G2 E2] EG [c2 A2] | BA [G2 E2] [E2 C2] [E2 A2] | EF [G2 D2] EC [D2 B,2] |
ED [C2 C,2] [C2 E,2] [C2 G,2] | [EE,][FE,] [G2 E2 G,2] [E2 C2 E,2] [c2 A2 C,2] | [BA,][AA,] [G2 E2 G,] [E2 C2 E,2] [E2 G,2 C,2] | [cC][AC] [G2 E2] [E2 C2 E,2] [ED,DD,] |
[C2 A,2 C,2] [D2 B,2 D,2] [D2 C2 E,2] [D2 D2 G,2] | [EE,][FE,] [G2 E2 G,2] [E2 C2 C,2] [c2 A2 C2] | [BA,][AA,] [G2 E2 G,2] [E2 C2 E,2] [E2 A,2 C,2] |
[EG,,][DG,,] [C2 E,2 C,2] [C2 G2 C,2] [C2 C2 C,,2] | cB [A F F,] [F C C,] [FCC,][ACC,] | [cA,][AA,] [G2G,2] [E2 C2 E,2] [E2 G2 C,,2] | [EE,][FE,] [G2 E2 G,2] [E2 C2 E,2] [cC,][AC,] |
[GE,][EE,] [D2 G2 D,2] [D2 A2 E,2] [D2 B2 F2] | EF [G2 E2] EG [c2 A2] | BA [G2 E2] [E2 C2] [E2 A2] | [EE,][FE,] [G2 D2 G,2] [EE,][CE,] [D2 B,2 D,2] |
[EG,][DG,] [C2 C,2 C,2] [C2 E,2 C,2] [C2 G2 C2] ||
